src/assets/selectIcons/cibo_5.svg

<svg xmlns="http://www.w3.org/2000/svg" viewBox="0 0 512 512" style="height: 512px; width: 512px;"><path d="M0 0h512v512H0z" fill="#000" fill-opacity="1"></path><g class="" transform="translate(0,0)" style=""><path d="M265.625 44.094c-11.92-.006-23.856.406-35.72 1.28l-8.75 7.407c10.17 6.262 17 15.568 18.782 26.064 1.987 11.69-2.516 24.07-12.125 33.562-19.217 18.984-51.41 23.684-75.718 11.344-3.116-1.582-5.967-3.43-8.53-5.5L16.75 225.28l73.844-19.374c7.536-18.897 26.34-33.647 48.312-37.594 3.574-.64 7.115-.964 10.563-.968 10.34-.013 19.93 2.784 27.655 8.125 2.484 1.716 4.762 3.703 6.78 5.936l292.376-76.72c-44.976-39.156-127.223-60.55-210.655-60.592zm224.97 74.687l-298.22 77.72c1.1 3.658 1.72 7.54 1.72 11.563 0 27.05-23.283 50.49-51.876 55.625-14.298 2.567-27.89-.067-38.19-7.188-10.298-7.12-16.968-19.036-16.968-32.563L19.69 241.5v95.375c.307-.08.527-.21.843-.28 14.397-3.31 28.193-1.258 38.69 5.592 10.495 6.85 17.25 18.793 17.25 32.407 0 27.227-23.146 51.74-51.876 58.344-1.705.39-3.29.547-4.907.75v13.218l202.563-52.812c-2.63-5.602-4.063-11.73-4.063-18.156 0-26.515 24.672-48.032 55.125-48.032 26.018 0 47.824 15.708 53.625 36.813 1.365.34 2.746.686 4.125 1.06l159.532-41.092V118.78zm-341.126 67.25c-2.306.005-4.726.204-7.25.657-20.205 3.63-36.47 21.794-36.47 37.25 0 7.73 3.215 13.253 8.906 17.188 5.69 3.935 14.148 5.97 24.25 4.156 20.204-3.628 36.5-21.76 36.5-37.218 0-7.728-3.215-13.283-8.906-17.218-4.268-2.952-10.118-4.823-17.03-4.813zm247.468 64.032c20.694 0 38.843 15.04 38.843 35.032 0 19.992-18.148 35.062-38.842 35.062-20.695 0-38.875-15.07-38.875-35.062 0-19.992 18.18-35.03 38.875-35.03zm0 18.688c-11.896 0-20.188 7.946-20.188 16.344 0 8.397 8.292 16.344 20.188 16.344 11.895 0 20.156-7.947 20.156-16.344 0-8.398-8.26-16.344-20.156-16.344z" fill="#fff" fill-opacity="1"></path></g></svg>

<?xml version="1.0" encoding="UTF-8" standalone="no"?>
<!DOCTYPE svg PUBLIC "-//W3C//DTD SVG 1.1//EN" "http://www.w3.org/Graphics/SVG/1.1/DTD/svg11.dtd">
<svg width="100%" height="100%" viewBox="0 0 512 512" version="1.1" xmlns="http://www.w3.org/2000/svg" xmlns:xlink="http://www.w3.org/1999/xlink" xml:space="preserve" xmlns:serif="http://www.serif.com/" style="fill-rule:evenodd;clip-rule:evenodd;stroke-linejoin:round;stroke-miterlimit:2;">
    <rect x="0" y="0" width="512" height="512" style="fill-rule:nonzero;"/>
    <g>
        <path d="M265.625,44.094C253.705,44.088 241.769,44.5 229.905,45.374L221.155,52.781C231.325,59.043 238.155,68.349 239.937,78.845C241.924,90.535 237.421,102.915 227.812,112.407C208.595,131.391 176.402,136.091 152.094,123.751C148.978,122.169 146.127,120.321 143.564,118.251L16.75,225.28L90.594,205.906C98.13,187.009 116.934,172.259 138.906,168.312C142.48,167.672 146.021,167.348 149.469,167.344C159.809,167.331 169.399,170.128 177.124,175.469C179.608,177.185 181.886,179.172 183.904,181.405L476.28,104.685C431.304,65.529 349.057,44.135 265.625,44.093L265.625,44.094ZM490.595,118.781L192.375,196.501C193.475,200.159 194.095,204.041 194.095,208.064C194.095,235.114 170.812,258.554 142.219,263.689C127.921,266.256 114.329,263.622 104.029,256.501C93.731,249.381 87.061,237.465 87.061,223.938L19.69,241.5L19.69,336.875C19.997,336.795 20.217,336.665 20.533,336.595C34.93,333.285 48.726,335.337 59.223,342.187C69.718,349.037 76.473,360.98 76.473,374.594C76.473,401.821 53.327,426.334 24.597,432.938C22.892,433.328 21.307,433.485 19.69,433.688L19.69,446.906L222.253,394.094C219.623,388.492 218.19,382.364 218.19,375.938C218.19,349.423 242.862,327.906 273.315,327.906C299.333,327.906 321.139,343.614 326.94,364.719C328.305,365.059 329.686,365.405 331.065,365.779L490.597,324.687L490.597,118.78L490.595,118.781ZM149.469,186.031C147.163,186.036 144.743,186.235 142.219,186.688C122.014,190.318 105.749,208.482 105.749,223.938C105.749,231.668 108.964,237.191 114.655,241.126C120.345,245.061 128.803,247.096 138.905,245.282C159.109,241.654 175.405,223.522 175.405,208.064C175.405,200.336 172.19,194.781 166.499,190.846C162.231,187.894 156.381,186.023 149.469,186.033L149.469,186.031ZM396.937,250.063C417.631,250.063 435.78,265.103 435.78,285.095C435.78,305.087 417.632,320.157 396.938,320.157C376.243,320.157 358.063,305.087 358.063,285.095C358.063,265.103 376.243,250.065 396.938,250.065L396.937,250.063ZM396.937,268.751C385.041,268.751 376.749,276.697 376.749,285.095C376.749,293.492 385.041,301.439 396.937,301.439C408.832,301.439 417.093,293.492 417.093,285.095C417.093,276.697 408.833,268.751 396.937,268.751Z" style="fill:rgb(255,189,0);fill-rule:nonzero;"/>
    </g>
</svg>
